localPackages/DesignSystem/Sources/DesignSystem/Resources/Assets.xcassets/IconSet/ic-earth-filled.imageset/ic-earth-filled.svg

<svg width="24" height="24" viewBox="0 0 24 24" fill="none" xmlns="http://www.w3.org/2000/svg">
<g id="ic-earth-filled">
<path id="Icon" fill-rule="evenodd" clip-rule="evenodd" d="M12 22.5C17.799 22.5 22.5 17.799 22.5 12C22.5 6.20101 17.799 1.5 12 1.5C6.20101 1.5 1.5 6.20101 1.5 12C1.5 17.799 6.20101 22.5 12 22.5ZM20.9975 12.216C20.9991 12.1442 21 12.0722 21 12C21 9.85581 20.2502 7.88675 18.9984 6.34073C18.8405 6.36099 18.6825 6.40873 18.533 6.4835L17.6636 6.9182C16.9959 7.25203 16.6753 8.02601 16.9114 8.73418L17.7247 11.1742C17.8949 11.6848 18.3257 12.0651 18.8536 12.1707L19.9558 12.3912C20.3338 12.4668 20.7025 12.3931 20.9975 12.216ZM3.00354 12.2547L3.3656 12.7375C4.05878 13.6617 5.22109 14.1058 6.35395 13.8792L6.89356 13.7713C7.65981 13.618 8.41535 14.0787 8.63002 14.8301L9.53619 18.0017C9.66999 18.47 10.0263 18.8421 10.4884 18.9961C11.3038 19.2679 12.178 18.788 12.3865 17.9542L12.6094 17.0626C12.6999 16.7006 12.922 16.3853 13.2325 16.1783L14.6686 15.221C14.8858 15.0762 15.0614 14.8772 15.1781 14.6437L15.2665 14.467C15.5552 13.8895 15.4421 13.1921 14.9855 12.7355L13.9393 11.6893C13.658 11.408 13.2765 11.25 12.8787 11.25H11.5389C11.348 11.25 11.159 11.2136 10.9818 11.1427L9.04705 10.3688C8.31469 10.0759 8.12045 9.12955 8.6782 8.5718C8.88424 8.36576 9.1637 8.25 9.4551 8.25H11.0061C11.1665 8.25 11.3247 8.21266 11.4681 8.14094C12.0987 7.82563 12.2351 6.98514 11.7366 6.48658L10.7805 5.53053C10.3492 5.09918 10.5858 4.36069 11.1876 4.26041L13.5714 3.86309C13.8901 3.80998 14.1396 3.57564 14.2214 3.27622C13.5108 3.09585 12.7666 3 12 3C7.02944 3 3 7.02944 3 12C3 12.0852 3.00118 12.1701 3.00354 12.2547Z" fill="#0F0F0F"/>
</g>
</svg>

<svg xmlns="http://www.w3.org/2000/svg" width="24" height="24" viewBox="0 0 24 24">
  <g class="ic-earth-filled">
    <path fill-rule="evenodd" d="M12 22.5c5.799 0 10.5-4.701 10.5-10.5S17.799 1.5 12 1.5 1.5 6.201 1.5 12 6.201 22.5 12 22.5Zm8.997-10.284L21 12c0-2.144-.75-4.113-2.002-5.66a1.466 1.466 0 0 0-.465.144l-.87.434a1.5 1.5 0 0 0-.752 1.816l.814 2.44c.17.51.6.891 1.129.997l1.102.22c.378.076.747.002 1.041-.175Zm-17.993.039.362.482a3 3 0 0 0 2.988 1.142l.54-.108a1.5 1.5 0 0 1 1.736 1.06L9.536 18a1.475 1.475 0 0 0 2.85-.047l.223-.891a1.5 1.5 0 0 1 .623-.885l1.437-.957a1.5 1.5 0 0 0 .51-.577l.088-.177a1.5 1.5 0 0 0-.281-1.732l-1.047-1.046a1.5 1.5 0 0 0-1.06-.439h-1.34a1.5 1.5 0 0 1-.557-.107l-1.935-.774a1.099 1.099 0 0 1 .408-2.119h1.551a1.033 1.033 0 0 0 .73-1.763l-.956-.956a.75.75 0 0 1 .408-1.27l2.383-.398a.812.812 0 0 0 .65-.587 9 9 0 0 0-11.218 8.978Z" class="Icon"/>
  </g>
</svg>
